X:53
T:Polska ur Petter Dufvas notbok (Ma6-53)
R:Polska
O:Verkelbäck, Småland
B:Petter Dufvas notbok
S:Petter Dufva
N:Smus Ma6 bild 55
M:3/4
L:1/8
K:D
AB/c/ d2 AG|FE D2d2|cBed cB/A/|BA/^G/ A2A,2:|
|:ef gfed|ce/a/ A2 G2|FGEF Df|ed/c/ d2D2:|

